Newaita-dark/apps/48/wps-office-wppmain.svg

<svg height="48" viewBox="0 0 48 48" width="48" xmlns="http://www.w3.org/2000/svg" xmlns:xlink="http://www.w3.org/1999/xlink"><linearGradient id="a" gradientUnits="userSpaceOnUse" x1="23.81478" x2="23.81478" y1="42.0509045" y2="44.03547050005"><stop offset="0" stop-opacity=".27451"/><stop offset="1" stop-opacity="0"/></linearGradient><linearGradient id="b"><stop offset="0" stop-opacity=".313726"/><stop offset=".222222" stop-opacity=".27451"/><stop offset="1" stop-opacity="0"/></linearGradient><radialGradient id="c" cx="450.908936" cy="189.579361" gradientTransform="matrix(.00000026 -.117199 -.210958 -.00000015 73.234568 95.392999)" gradientUnits="userSpaceOnUse" r="21.166656" xlink:href="#b"/><radialGradient id="d" cx="450.908936" cy="189.579361" gradientTransform="matrix(-.00000026 .117199 .210958 .00000015 -26.597299 -11.291218)" gradientUnits="userSpaceOnUse" r="21.166656" xlink:href="#b"/><radialGradient id="e" cx="450.908936" cy="189.579361" gradientTransform="matrix(-.00000026 -.117199 .210958 -.00000015 -26.597299 95.392999)" gradientUnits="userSpaceOnUse" r="21.166656" xlink:href="#b"/><radialGradient id="f" cx="450.908936" cy="189.579361" gradientTransform="matrix(.00000026 .117199 -.210958 .00000015 73.234565 -11.291219)" gradientUnits="userSpaceOnUse" r="21.166656" xlink:href="#b"/><linearGradient id="g" gradientUnits="userSpaceOnUse" x1="23.318674" x2="23.318674" y1="42.05096580616" y2="4.34417266504"><stop offset="0" stop-color="#eee"/><stop offset="1" stop-color="#f5f5f5"/></linearGradient><linearGradient id="h"><stop offset="0" stop-color="#ff7043"/><stop offset="1" stop-color="#ff8a65"/></linearGradient><linearGradient id="i" gradientUnits="userSpaceOnUse" x1="23.318674" x2="23.318674" xlink:href="#h" y1="42.05096580616" y2="4.34417266504"/><linearGradient id="j" gradientTransform="matrix(.229136 -.132292 .132292 .229136 -19.209612 -92.343376)" gradientUnits="userSpaceOnUse" x1="786.339783" x2="1136.339722" y1="1183.226074" y2="577.008301"><stop offset="0" stop-color="#9e9e9e"/><stop offset="1" stop-color="#bdbdbd"/></linearGradient><linearGradient id="k" gradientTransform="matrix(.093759 0 0 .118432 .000001 11.341748)" gradientUnits="userSpaceOnUse" x1="243.416656" x2="243.416656" xlink:href="#h" y1="259.296906" y2="-59.085064"/><path d="m12.898438 42.050781h20.839843v1.984375h-20.839843zm0 0" fill="url(#a)"/><path d="m33.738281 42.050781h3.96875v-1.984375h-3.96875zm0 0" fill="url(#c)"/><path d="m12.898438 42.050781h-3.96875v1.984375h3.96875zm0 0" fill="url(#d)"/><path d="m12.898438 42.050781h-3.96875v-1.984375h3.96875zm0 0" fill="url(#e)"/><path d="m33.738281 42.050781h3.96875v1.984375h-3.96875zm0 0" fill="url(#f)"/><path d="m10.914062 4.34375c-1.097656 0-1.984374.886719-1.984374 1.984375v33.738281c0 1.097656.886718 1.984375 1.984374 1.984375h24.808594c1.097656 0 1.984375-.886719 1.984375-1.984375v-26.792968l-8.929687-8.929688zm19.847657 0 6.945312 6.945312v-4.960937c0-1.097656-.886719-1.984375-1.984375-1.984375zm0 0" fill="url(#g)"/><path d="m30.761719 4.34375 6.945312 6.945312v-4.960937c0-1.097656-.886719-1.984375-1.984375-1.984375zm0 0" fill="url(#i)"/><path d="m10.914062 4.34375c-1.097656 0-1.984374.886719-1.984374 1.984375v.496094c0-1.097657.886718-1.984375 1.984374-1.984375h17.863282l8.929687 8.929687v-.496093l-8.929687-8.929688zm19.847657 0 .496093.496094h4.464844c1.097656 0 1.984375.886718 1.984375 1.984375v-.496094c0-1.097656-.886719-1.984375-1.984375-1.984375zm0 0" fill="#fff" fill-opacity=".392157"/><path d="m283.354508-97.433451 39.704541 68.743435 32.08027-18.539896 22.914479-13.207072 13.748687-7.957573c-21.9979-38.079697-70.36828-51.036793-108.447977-29.038894zm-5.791114 21.664598c-38.079697 21.997899-51.036793 70.36828-29.080556 108.447977 21.997899 38.079697 70.36828 51.036793 108.447977 29.038893 38.079697-21.956236 51.036793-70.326617 29.038893-108.406314l-13.748687 7.915911-22.914478 13.248735-32.08027 18.498233zm0 0" fill="url(#j)" stroke="#212121" stroke-linecap="round" stroke-linejoin="round" stroke-width="3" transform="matrix(.093759 0 0 .093759 -6.449834 25.615727)"/><path d="m8.929688 25.183594h28.777343v9.425781h-28.777343zm0 0" fill="url(#k)"/><path d="m8.929688 34.609375v.742187h28.777343v-.742187zm0 0" fill-opacity=".235294"/><path d="m8.929688 25.183594v.742187h28.777343v-.742187zm0 0" fill="#fff" fill-opacity=".392157"/><path d="m8.929688 25.042969c-.078126 0-.140626.0625-.140626.140625v9.425781c0 .078125.0625.140625.140626.140625h28.777343c.078125 0 .140625-.0625.140625-.140625v-9.425781c0-.078125-.0625-.140625-.140625-.140625zm.140624.28125h28.496094v9.144531h-28.496094zm0 0" fill="#212121"/><path d="m30.761719 4.34375 6.945312 6.945312v-.734374l-6.210937-6.210938zm-21.832031 34.984375v.738281c0 1.097656.886718 1.984375 1.984374 1.984375h24.808594c1.097656 0 1.984375-.886719 1.984375-1.984375v-.738281c0 1.101563-.886719 1.988281-1.984375 1.988281h-24.808594c-1.097656 0-1.984374-.886718-1.984374-1.988281zm0 0" fill-opacity=".235294"/><path d="m10.914062 4.203125c-1.175781 0-2.125.949219-2.125 2.125v33.738281c0 1.175782.949219 2.125 2.125 2.125h24.808594c1.175782 0 2.125-.949218 2.125-2.125v-26.792968c0-.035157-.015625-.070313-.042968-.097657l-8.929688-8.929687c-.027344-.027344-.0625-.042969-.097656-.042969zm19.847657 0c-.058594 0-.109375.035156-.132813.085937-.019531.054688-.007812.113282.03125.15625l6.945313 6.945313c.042969.039063.101562.050781.15625.03125.050781-.023437.085937-.074219.085937-.132813v-4.960937c0-1.175781-.949218-2.125-2.125-2.125zm-19.847657.28125h17.804688l8.847656 8.847656v26.734375c0 1.023438-.820312 1.84375-1.84375 1.84375h-24.808594c-1.023437 0-1.84375-.820312-1.84375-1.84375v-33.738281c0-1.023437.820313-1.84375 1.84375-1.84375zm20.1875 0h4.621094c1.023438 0 1.84375.820313 1.84375 1.84375v4.621094zm0 0" fill="#212121"/></svg>

<?xml version="1.0" encoding="UTF-8"?>
<svg xmlns="http://www.w3.org/2000/svg" xmlns:xlink="http://www.w3.org/1999/xlink" width="48px" height="48px" viewBox="0 0 48 48" version="1.1">
<defs>
<linearGradient id="linear0" gradientUnits="userSpaceOnUse" x1="254" y1="233.5" x2="254" y2="254.666672" gradientTransform="matrix(0.093759,0,0,0.093759,-0.00000572259,20.158178)">
<stop offset="0" style="stop-color:rgb(0%,0%,0%);stop-opacity:0.27451;"/>
<stop offset="1" style="stop-color:rgb(0%,0%,0%);stop-opacity:0;"/>
</linearGradient>
<radialGradient id="radial0" gradientUnits="userSpaceOnUse" cx="450.908936" cy="189.579361" fx="450.908936" fy="189.579361" r="21.166656" gradientTransform="matrix(0.000000261256,-0.117199,-0.210958,-0.000000152308,73.234568,95.392999)">
<stop offset="0" style="stop-color:rgb(0%,0%,0%);stop-opacity:0.313726;"/>
<stop offset="0.222222" style="stop-color:rgb(0%,0%,0%);stop-opacity:0.27451;"/>
<stop offset="1" style="stop-color:rgb(0%,0%,0%);stop-opacity:0;"/>
</radialGradient>
<radialGradient id="radial1" gradientUnits="userSpaceOnUse" cx="450.908936" cy="189.579361" fx="450.908936" fy="189.579361" r="21.166656" gradientTransform="matrix(-0.000000261256,0.117199,0.210958,0.000000152308,-26.597299,-11.291218)">
<stop offset="0" style="stop-color:rgb(0%,0%,0%);stop-opacity:0.313726;"/>
<stop offset="0.222222" style="stop-color:rgb(0%,0%,0%);stop-opacity:0.27451;"/>
<stop offset="1" style="stop-color:rgb(0%,0%,0%);stop-opacity:0;"/>
</radialGradient>
<radialGradient id="radial2" gradientUnits="userSpaceOnUse" cx="450.908936" cy="189.579361" fx="450.908936" fy="189.579361" r="21.166656" gradientTransform="matrix(-0.000000261256,-0.117199,0.210958,-0.000000152308,-26.597299,95.392999)">
<stop offset="0" style="stop-color:rgb(0%,0%,0%);stop-opacity:0.313726;"/>
<stop offset="0.222222" style="stop-color:rgb(0%,0%,0%);stop-opacity:0.27451;"/>
<stop offset="1" style="stop-color:rgb(0%,0%,0%);stop-opacity:0;"/>
</radialGradient>
<radialGradient id="radial3" gradientUnits="userSpaceOnUse" cx="450.908936" cy="189.579361" fx="450.908936" fy="189.579361" r="21.166656" gradientTransform="matrix(0.000000261256,0.117199,-0.210958,0.000000152308,73.234565,-11.291219)">
<stop offset="0" style="stop-color:rgb(0%,0%,0%);stop-opacity:0.313726;"/>
<stop offset="0.222222" style="stop-color:rgb(0%,0%,0%);stop-opacity:0.27451;"/>
<stop offset="1" style="stop-color:rgb(0%,0%,0%);stop-opacity:0;"/>
</radialGradient>
<linearGradient id="linear1" gradientUnits="userSpaceOnUse" x1="940" y1="1695.118164" x2="940" y2="175.118118" gradientTransform="matrix(0.0248071,0,0,0.0248071,0,0.00000000000000282)">
<stop offset="0" style="stop-color:rgb(93.333334%,93.333334%,93.333334%);stop-opacity:1;"/>
<stop offset="1" style="stop-color:rgb(96.078432%,96.078432%,96.078432%);stop-opacity:1;"/>
</linearGradient>
<linearGradient id="linear2" gradientUnits="userSpaceOnUse" x1="940" y1="1695.118164" x2="940" y2="175.118118" gradientTransform="matrix(0.0248071,0,0,0.0248071,0,0.00000000000000282)">
<stop offset="0" style="stop-color:rgb(100%,43.921569%,26.274511%);stop-opacity:1;"/>
<stop offset="1" style="stop-color:rgb(100%,54.11765%,39.607844%);stop-opacity:1;"/>
</linearGradient>
<linearGradient id="linear3" gradientUnits="userSpaceOnUse" x1="786.339783" y1="1183.226074" x2="1136.339722" y2="577.008301" gradientTransform="matrix(0.229136,-0.132292,0.132292,0.229136,-19.209612,-92.343376)">
<stop offset="0" style="stop-color:rgb(61.960787%,61.960787%,61.960787%);stop-opacity:1;"/>
<stop offset="1" style="stop-color:rgb(74.117649%,74.117649%,74.117649%);stop-opacity:1;"/>
</linearGradient>
<linearGradient id="linear4" gradientUnits="userSpaceOnUse" x1="243.416656" y1="259.296906" x2="243.416656" y2="-59.085064" gradientTransform="matrix(0.093759,0,0,0.118432,0.000000953765,11.341748)">
<stop offset="0" style="stop-color:rgb(100%,43.921569%,26.274511%);stop-opacity:1;"/>
<stop offset="1" style="stop-color:rgb(100%,54.11765%,39.607844%);stop-opacity:1;"/>
</linearGradient>
</defs>
<g id="surface1">
<path style=" stroke:none;fill-rule:nonzero;fill:url(#linear0);" d="M 12.898438 42.050781 L 33.738281 42.050781 L 33.738281 44.035156 L 12.898438 44.035156 Z M 12.898438 42.050781 "/>
<path style=" stroke:none;fill-rule:nonzero;fill:url(#radial0);" d="M 33.738281 42.050781 L 37.707031 42.050781 L 37.707031 40.066406 L 33.738281 40.066406 Z M 33.738281 42.050781 "/>
<path style=" stroke:none;fill-rule:nonzero;fill:url(#radial1);" d="M 12.898438 42.050781 L 8.929688 42.050781 L 8.929688 44.035156 L 12.898438 44.035156 Z M 12.898438 42.050781 "/>
<path style=" stroke:none;fill-rule:nonzero;fill:url(#radial2);" d="M 12.898438 42.050781 L 8.929688 42.050781 L 8.929688 40.066406 L 12.898438 40.066406 Z M 12.898438 42.050781 "/>
<path style=" stroke:none;fill-rule:nonzero;fill:url(#radial3);" d="M 33.738281 42.050781 L 37.707031 42.050781 L 37.707031 44.035156 L 33.738281 44.035156 Z M 33.738281 42.050781 "/>
<path style=" stroke:none;fill-rule:nonzero;fill:url(#linear1);" d="M 10.914062 4.34375 C 9.816406 4.34375 8.929688 5.230469 8.929688 6.328125 L 8.929688 40.066406 C 8.929688 41.164062 9.816406 42.050781 10.914062 42.050781 L 35.722656 42.050781 C 36.820312 42.050781 37.707031 41.164062 37.707031 40.066406 L 37.707031 13.273438 L 28.777344 4.34375 Z M 30.761719 4.34375 L 37.707031 11.289062 L 37.707031 6.328125 C 37.707031 5.230469 36.820312 4.34375 35.722656 4.34375 Z M 30.761719 4.34375 "/>
<path style=" stroke:none;fill-rule:nonzero;fill:url(#linear2);" d="M 30.761719 4.34375 L 37.707031 11.289062 L 37.707031 6.328125 C 37.707031 5.230469 36.820312 4.34375 35.722656 4.34375 Z M 30.761719 4.34375 "/>
<path style=" stroke:none;fill-rule:nonzero;fill:rgb(100%,100%,100%);fill-opacity:0.392157;" d="M 10.914062 4.34375 C 9.816406 4.34375 8.929688 5.230469 8.929688 6.328125 L 8.929688 6.824219 C 8.929688 5.726562 9.816406 4.839844 10.914062 4.839844 L 28.777344 4.839844 L 37.707031 13.769531 L 37.707031 13.273438 L 28.777344 4.34375 Z M 30.761719 4.34375 L 31.257812 4.839844 L 35.722656 4.839844 C 36.820312 4.839844 37.707031 5.726562 37.707031 6.824219 L 37.707031 6.328125 C 37.707031 5.230469 36.820312 4.34375 35.722656 4.34375 Z M 30.761719 4.34375 "/>
<path style="fill-rule:nonzero;fill:url(#linear3);stroke-width:3;stroke-linecap:round;stroke-linejoin:round;stroke:rgb(12.941177%,12.941177%,12.941177%);stroke-opacity:1;stroke-miterlimit:4;" d="M 283.354508 -97.433451 L 323.059049 -28.690016 L 355.139319 -47.229912 L 378.053798 -60.436984 L 391.802485 -68.394557 C 369.804585 -106.474254 321.434205 -119.43135 283.354508 -97.433451 Z M 277.563394 -75.768853 C 239.483697 -53.770954 226.526601 -5.400573 248.482838 32.679124 C 270.480737 70.758821 318.851118 83.715917 356.930815 61.718017 C 395.010512 39.761781 407.967608 -8.6086 385.969708 -46.688297 L 372.221021 -38.772386 L 349.306543 -25.523651 L 317.226273 -7.025418 Z M 277.563394 -75.768853 " transform="matrix(0.093759,0,0,0.093759,-6.449834,25.615727)"/>
<path style=" stroke:none;fill-rule:nonzero;fill:url(#linear4);" d="M 8.929688 25.183594 L 37.707031 25.183594 L 37.707031 34.609375 L 8.929688 34.609375 Z M 8.929688 25.183594 "/>
<path style=" stroke:none;fill-rule:nonzero;fill:rgb(0%,0%,0%);fill-opacity:0.235294;" d="M 8.929688 34.609375 L 8.929688 35.351562 L 37.707031 35.351562 L 37.707031 34.609375 Z M 8.929688 34.609375 "/>
<path style=" stroke:none;fill-rule:nonzero;fill:rgb(100%,100%,100%);fill-opacity:0.392157;" d="M 8.929688 25.183594 L 8.929688 25.925781 L 37.707031 25.925781 L 37.707031 25.183594 Z M 8.929688 25.183594 "/>
<path style=" stroke:none;fill-rule:nonzero;fill:rgb(12.941177%,12.941177%,12.941177%);fill-opacity:1;" d="M 8.929688 25.042969 C 8.851562 25.042969 8.789062 25.105469 8.789062 25.183594 L 8.789062 34.609375 C 8.789062 34.6875 8.851562 34.75 8.929688 34.75 L 37.707031 34.75 C 37.785156 34.75 37.847656 34.6875 37.847656 34.609375 L 37.847656 25.183594 C 37.847656 25.105469 37.785156 25.042969 37.707031 25.042969 Z M 9.070312 25.324219 L 37.566406 25.324219 L 37.566406 34.46875 L 9.070312 34.46875 Z M 9.070312 25.324219 "/>
<path style=" stroke:none;fill-rule:nonzero;fill:rgb(0%,0%,0%);fill-opacity:0.235294;" d="M 30.761719 4.34375 L 37.707031 11.289062 L 37.707031 10.554688 L 31.496094 4.34375 Z M 8.929688 39.328125 L 8.929688 40.066406 C 8.929688 41.164062 9.816406 42.050781 10.914062 42.050781 L 35.722656 42.050781 C 36.820312 42.050781 37.707031 41.164062 37.707031 40.066406 L 37.707031 39.328125 C 37.707031 40.429688 36.820312 41.316406 35.722656 41.316406 L 10.914062 41.316406 C 9.816406 41.316406 8.929688 40.429688 8.929688 39.328125 Z M 8.929688 39.328125 "/>
<path style=" stroke:none;fill-rule:nonzero;fill:rgb(12.941177%,12.941177%,12.941177%);fill-opacity:1;" d="M 10.914062 4.203125 C 9.738281 4.203125 8.789062 5.152344 8.789062 6.328125 L 8.789062 40.066406 C 8.789062 41.242188 9.738281 42.191406 10.914062 42.191406 L 35.722656 42.191406 C 36.898438 42.191406 37.847656 41.242188 37.847656 40.066406 L 37.847656 13.273438 C 37.847656 13.238281 37.832031 13.203125 37.804688 13.175781 L 28.875 4.246094 C 28.847656 4.21875 28.8125 4.203125 28.777344 4.203125 Z M 30.761719 4.203125 C 30.703125 4.203125 30.652344 4.238281 30.628906 4.289062 C 30.609375 4.34375 30.621094 4.402344 30.660156 4.445312 L 37.605469 11.390625 C 37.648438 11.429688 37.707031 11.441406 37.761719 11.421875 C 37.8125 11.398438 37.847656 11.347656 37.847656 11.289062 L 37.847656 6.328125 C 37.847656 5.152344 36.898438 4.203125 35.722656 4.203125 Z M 10.914062 4.484375 L 28.71875 4.484375 L 37.566406 13.332031 L 37.566406 40.066406 C 37.566406 41.089844 36.746094 41.910156 35.722656 41.910156 L 10.914062 41.910156 C 9.890625 41.910156 9.070312 41.089844 9.070312 40.066406 L 9.070312 6.328125 C 9.070312 5.304688 9.890625 4.484375 10.914062 4.484375 Z M 31.101562 4.484375 L 35.722656 4.484375 C 36.746094 4.484375 37.566406 5.304688 37.566406 6.328125 L 37.566406 10.949219 Z M 31.101562 4.484375 "/>
</g>
</svg>
